X:1
T:Fantasia em La Menor
T:Fantasia in A Minor
T:BWV 904
T:J.S. Bach
%%score { ( 1 2 5 7 ) | ( 3 4 6 ) }
L:1/8
Q:1/4=114
M:2/2
K:C
V:1 treble nm="Cravo" snm="Crv."
V:2 treble 
V:5 treble 
V:7 treble 
V:3 bass 
V:4 bass 
V:6 bass 
V:1
"^Fantasia." e4 f4- | f4 e4- | e2 a^g a4- | !arpeggio![cea]4 !arpeggio![Be^g]4 | a2 =gf g2 fe | %5
 f8- | f2 ed ed=cB | c8- | c2 dc BA^G^F | A^G^FE e4- | e4 d4- | d2 cB c2 dc | B6 cB | A4 B4- | %14
 B2 A^G A2 Bc | ^F2 B4 e2- | e4 ^d4 | e2 BA B2 cB | A4 B4- | B2 ed e2 fe | %20
 d2 fe !arpeggio![Gdf-]4 | f2 ed e2 fe | d4 g4- | g2 fe f2 gf | e4 a4- | a2 g^f g2 ag | ^f4 b4- | %27
 b2 ag a4- | a2 g^f g4- | g4 ^f4- | ^f2 e^d e4 | ^f4 B4- | B2 e^d e4- | e4 !arpeggio![^FB^d]4 | %34
 e2 dc d2 cB | c8- | c2 BA BA=G^F | G8- | G2 AG ^FE^D^C | E^D^CB, B4- | B4 A4- | A2 G^F G4 | =F8 | %43
 E4- EEFG | A4- AABc | d6 c2- | ccBA B4 | A4 d4- | ddcB c2 dc | B4 e4- | ee^d^c d2 e^f | B8- | %52
 B2 AG A4- | AAG^F GABG | EG^FE FGAF | ^DB,^CD E^FGA | B4- B^FGA | G4- GGAB | c6 B2- | BE=F=G A4- | %60
 A2 GF G2 AG | F4 d4- | d2 =c_B c2 dc | _B4 A4 | _B4- B A3 | A4 G4 | A4 d4- | d2 ^c=B c4 | A4 d4 | %69
 e4 A4- | A2 d^c d4- | dfed a=B^ce- | ed=c_B dcBA | z8 | z8 | z8 | z8 | z8 | z8 | z8 | z8 | z8 | %82
 z8 | z8 | z8 |] %85
V:2
 [Ac]8 | B8 | A6 B2 | x8 | A4 A4 | A8 | B8- | BBA^G [EA-]4 | [FA]4 x4 | x4 [^GB]4- | [GB]2 x2 A4 | %11
 A4 A4- | A2 =GF G2 AG | F6 GF | E8 | ^D4 E4 | ^F2 AG A2 BA | G2 ^F2 G4 | ^F4 =F4 | E4 A4- | %20
 A4 x4 | [Gc]4 c4- | c2 BA B2 cB | A4 d4- | d2 cB c2 dc | B4 e4- | e2 dc d2 ed | c6 dc | B6 cB | %29
 A8 | [GB]4 c4- | c4 ^F4- | F6 ^F2 | G4 x4 | B4 B4- | B2 A^G A4- | A2 x6 | x4 B,4 | C4 x4 | %39
 x4 ^F4- | F2 E4 ^D2 | E4 E4- | EEDC D4- | DDCB, C4- | CCDE F4- | F2 F2 E4 | D4 G4- | GGFE F2 GF | %48
 E4 A4- | AAG^F G2 AG | ^F8- | F^FE^D EFGE | ^C4 =C4 | x8 | x8 | x8 | x8 | E4 z4 | z8 | z4 z cde | %60
 f4- f e3- | eAB^c z fga | _b4- b a3- | a2 g4 =f2 | e8 | d4 g4- | ggfe f2 gf | e8- | e2 d^c _B4- | %69
 B2 AG x4 | x4 G4 | A8- | A8- | A z z2 z4 | x8 | x8 | x8 | x8 | x8 | x8 | x8 | x8 | x8 | x8 | x8 |] %85
V:3
 E6 DC | B,6 A,B, | C4 DCB,A,- | A,CB,A, E4 | !arpeggio![C,E,A,]4 A,4- | A,G,F,E, D,4 | %6
 z2 B,,2 E,4- | E,2 E,2 A,4- | A,2 A,2 D4- | D4- D2 CB, | C4 PB,4 | A,8 | B,4 E4- | E2 DC D2 ED | %14
 C8 | B,8 | A,8 | B,4 E4- | E2 DC D2 ED | C8- | C6 B,2 | C4 z2[K:treble] C2 | G2 F2 E2 D2 | %23
 ^C2 A,2 z2 D2 | A2 G2 ^F2 E2 | ^D2 B,2 z2 E2 | B2 A2 ^G2 E2 | A2 =G2 ^F2 E2 | ^D2 B,2 E2 =D2 | %29
 ^C2 ^DE D2 CD | E4 E4 | A,4 B,4 | C4 A,G,^F,E,- | E,G,^F,E, B,4 | %34
 !arpeggio![G,,B,,E,]4 !arpeggio![^G,,B,,E,-]4 | E,D,C,B,, A,,=G,,^F,,E,, | z2 ^F,,2 B,,4- | %37
 B,,2 B,,2 E,4- | E,2 E,2 z2 F,2- | F,4 z2 G,^F, | G,4 P^F,4 | E,4 z E,^F,G, | A,4 z CB,A, | %43
 ^G,2 E,2 A,2 =G,2 | F,2 E,2 D,2 C,2 | B,,G,,A,,B,, C,D,E,F, | G,4- G,A,B,C | D4- DCB,A, | %48
 ^G,B,A,G, A,=G,^F,E, | ^D,^F,E,D, E,=D,C,B,, | A,,^F,G,A, B,=CB,A, | G,8- | G,G,^F,E, F,G,A,F, | %53
 ^D,2 B,,2 E,2 =D,2 | ^C,4 =C,4 | B,,8- | B,,6 B,,2 | E,4- E,=D=CB, | A,G,^F,E, F,A,^G,B, | %59
 A,2 =G,2 =F,2 E,2 | D,F,G,A, _B,2 E,2 | F,2 E,2 F,2 D,2 | G,6 ^F,2 | D4- D=E=FD | G4 E4 | %65
 FGFE DFED | ^C4 z DEF | GFGA G_BAG | F6 GF | E6 FE | D6 E2 | F4 E4 | A,6 D2 | z8 | z8 | z8 | z8 | %77
 z8 | z8 | z8 | z8 | z8 | z8 | z8 | z8 |] %85
V:4
 A,8 | G,8 | F,8 | E,6 D,2 | x4 [^C,E,]4 | D,4- D,=C,B,,A,, | ^G,,8 | A,,6 B,,C, | D,8 | E,8- | %10
 E,8 | A,,8 | z8 | z8 | E,4 A,4- | A,2 =G,^F, G,2 A,G, | ^F,8 | E,8 | ^F,4 ^G,4 | A,6 =G,2 | %20
 F,4 G,4 | C,4 z4[K:treble] | x8 | x8 | x8 | x8 | x8 | x8 | x8 | x8 | B,6 A,G, | ^F,6 E,F, | %32
 G,4 z4 | B,,6 A,,2 | x8 | A,,4- A,,4 | ^D,,8 | E,,6 ^F,,G,, | x4 A,4- | A,4- A,2 x2 | x8 | x8 | %42
 x8 | x8 | x8 | x8 | x8 | x8 | x8 | x8 | x8 | x8 | x8 | B,8- | B,2 A,G, A,4- | A,2 A,2 G,2 ^F,2 | %56
 G,2 A,2 B,4- | B,B,^C^D E4- | E2 DC D2 ED | C6 ^C2 | D6 ^C2 | D8- | D_B,CD _E2 A,2 | %63
 G,A,_B,C D4- | DDC_B, C2 DC | _B,8 | A,8 | x8 | D8 | =C8 | _B,8 | A,6 G,2 | F,4 ^F,4 | x8 | x8 | %75
 x8 | x8 | x8 | x8 | x8 | x8 | x8 | x8 | x8 | x8 |] %85
V:5
 x8 | d4 x4 | e4 d4 | x8 | e4 e4- | e2 d^c d4- | d2 x6 | x8 | x8 | x4 E4- | E8 | x8 | x8 | x8 | %14
 x8 | x8 | x8 | x8 | x8 | x8 | x8 | x8 | x8 | x8 | x8 | x8 | x8 | x8 | x8 | x8 | x4 G4 | A2 G2 x4 | %32
 B4 A4 | B4 x4 | E4 E4- | E8 | ^F8- | F^FE^D E4- | E4 x4 | x4 ^D4- | D2 x6 | x8 | x8 | x8 | x8 | %45
 x8 | x8 | x8 | x8 | x8 | x8 | x8 | x8 | x8 | x8 | x8 | x8 | x8 | x8 | x8 | x8 | x8 | x8 | x8 | %64
 x8 | x8 | x8 | x8 | x8 | x8 | x8 | x8 | x8 | x8 | x8 | x8 | x8 | x8 | x8 | x8 | x8 | x8 | x8 | %83
 x8 | x8 |] %85
V:6
 x8 | x8 | x8 | x8 | x8 | x8 | x8 | x8 | x4 z2 B,2- | B,4 x4 | x8 | x8 | x8 | x8 | x8 | x8 | x8 | %17
 x8 | x8 | x8 | x8 | x6[K:treble] x2 | x8 | x8 | x8 | x8 | x8 | x8 | x8 | x8 | E,8 | =D,8 | C,8 | %33
 x8 | x8 | x8 | x8 | x8 | A,,8 | B,,8- | B,,8 | E,,4 x4 | x8 | x8 | x8 | x8 | x8 | x8 | x8 | x8 | %50
 x8 | x8 | x8 | x8 | x8 | x8 | x8 | x8 | x8 | x8 | x8 | x8 | x8 | x8 | x8 | x8 | x8 | x8 | x8 | %69
 x8 | x8 | x8 | x8 | x8 | x8 | x8 | x8 | x8 | x8 | x8 | x8 | x8 | x8 | x8 | x8 |] %85
V:7
 x8 | x8 | x8 | x8 | x8 | x8 | x8 | x8 | x8 | x8 | x6 ^G2 | x8 | x8 | x8 | x8 | x8 | x8 | x8 | x8 | %19
 x8 | x8 | x8 | x8 | x8 | x8 | x8 | x8 | x8 | x8 | x8 | x8 | x8 | x8 | x8 | x8 | x8 | x8 | x8 | %38
 x8 | x4 B,4- | B,8 | B,4 x4 | x8 | x8 | x8 | x8 | x8 | x8 | x8 | x8 | x8 | x8 | x8 | x8 | x8 | %55
 x8 | x8 | x8 | x8 | x8 | x8 | x8 | x8 | x8 | x8 | x8 | x8 | x8 | x8 | x8 | x8 | x8 | x8 | x8 | %74
 x8 | x8 | x8 | x8 | x8 | x8 | x8 | x8 | x8 | x8 | x8 |] %85

